brandFactory_export/2.Regular/Directorio_2Regular.svg

<?xml version="1.0" encoding="UTF-8"?>
<svg width="24px" height="24px" viewBox="0 0 24 24" version="1.1" xmlns="http://www.w3.org/2000/svg" xmlns:xlink="http://www.w3.org/1999/xlink">
    <title>2.Regular/Directorio_2Regular</title>
    <g id="Symbols" stroke="none" stroke-width="1" fill="none" fill-rule="evenodd">
        <g id="2.Regular/Directorio_2Regular" fill="#5CB615" fill-rule="nonzero">
            <path d="M15.7529412,14.4235294 C17.9445378,14.4235294 19.7462185,15.0890756 20.9596639,16.3495798 C22.0756303,17.5092437 22.6638655,19.1159664 22.6638655,20.994958 L22.6638655,22.9613445 C22.6638655,23.3344538 22.3647059,23.6336134 21.9915966,23.6336134 L1.67226891,23.6336134 C1.30252101,23.6336134 1,23.3310924 1,22.9613445 L1,20.994958 C1,19.1159664 1.58823529,17.5092437 2.70420168,16.3495798 C3.91764706,15.0890756 5.71932773,14.4235294 7.91092437,14.4235294 L15.7529412,14.4235294 Z M15.7529412,15.7680672 L7.91428571,15.7680672 C6.06890756,15.7680672 4.64369748,16.2789916 3.67563025,17.2840336 C2.80504202,18.1848739 2.34453782,19.4689076 2.34453782,20.994958 L2.34453782,22.2890756 L21.3193277,22.2890756 L21.3193277,20.994958 C21.3193277,19.4689076 20.8588235,18.1848739 19.9915966,17.2840336 C19.0235294,16.2789916 17.5983193,15.7680672 15.7529412,15.7680672 Z M11.8369748,1.7408297e-13 C14.2268908,1.7408297e-13 16.092437,0.628571429 17.3764706,1.86890756 C18.7109244,3.15630252 19.3865546,5.06890756 19.3865546,7.55630252 L19.3865546,7.56638655 L19.3764706,8.21848739 C19.3764706,8.90084034 19.1647059,9.46554622 18.7714286,9.85546218 C18.3781513,10.2453782 17.8369748,10.4470588 17.1647059,10.4470588 L16.6670653,10.4482801 C15.9204147,12.2318896 14.2695982,13.1865546 11.8403361,13.1865546 C8.43529412,13.1865546 6.55966387,11.3109244 6.55966387,7.90588235 C6.55966387,4.50084034 8.43865546,2.62521008 11.8403361,2.62521008 C15.2420168,2.62521008 17.1210084,4.50084034 17.1210084,7.90588235 C17.1210084,8.32853877 17.0921098,8.72763089 17.0349747,9.10249659 L17.1647059,9.10252101 C17.4705882,9.10252101 17.692437,9.03529412 17.8268908,8.90084034 C17.9983193,8.73277311 18.0319328,8.43361345 18.0319328,8.21512605 L18.0319328,8.20504202 L18.0420168,7.55294118 C18.0420168,5.44537815 17.5042017,3.85882353 16.4453782,2.83697479 C15.4168067,1.84537815 13.8672269,1.34453782 11.8369748,1.34453782 C10.0016807,1.34453782 8.55294118,1.75462185 7.53781513,2.56470588 C6.50588235,3.38487395 5.88739496,4.65546218 5.69579832,6.3394958 C5.65210084,6.7092437 5.31932773,6.97142857 4.94957983,6.93109244 C4.57983193,6.88739496 4.31764706,6.55462185 4.35798319,6.18487395 C4.59327731,4.13445378 5.37983193,2.56470588 6.69747899,1.51260504 C7.95798319,0.507563025 9.68907563,1.7408297e-13 11.8369748,1.7408297e-13 Z M14.0285714,10.594958 C13.8336134,10.7932773 13.5378151,10.9008403 13.194958,10.9008403 C12.8521008,10.9008403 12.5630252,10.7966387 12.3680672,10.594958 C12.1731092,10.3932773 12.0722689,10.1243697 12.0722689,9.78151261 C12.0722689,9.09243697 12.502521,8.66218487 13.1983193,8.66218487 C13.6220798,8.66218487 13.9473453,8.82177176 14.1369091,9.10222026 L15.6720894,9.10311826 C15.7415289,8.74096568 15.7764706,8.34274852 15.7764706,7.9092437 C15.7764706,6.55798319 15.4403361,5.54957983 14.7714286,4.90756303 C14.1294118,4.28235294 13.1445378,3.9697479 11.8403361,3.9697479 C10.5394958,3.9697479 9.55462185,4.28571429 8.9092437,4.90756303 C8.24369748,5.54957983 7.90420168,6.55798319 7.90420168,7.9092437 C7.90420168,9.2605042 8.24033613,10.2689076 8.9092437,10.9109244 C9.55462185,11.5327731 10.5394958,11.8487395 11.8403361,11.8487395 C13.1411765,11.8487395 14.1260504,11.5327731 14.7714286,10.9109244 C14.91385,10.7735381 15.0413407,10.619374 15.1537691,10.4486628 L14.1465053,10.4484218 C14.1120767,10.501131 14.0727394,10.5500285 14.0285714,10.594958 Z" id="Directorio_2Regular"></path>
        </g>
    </g>
</svg>

<svg width="24" height="24" viewBox="0 0 24 24" xmlns="http://www.w3.org/2000/svg"><path d="M15.753 14.424c2.192 0 3.993.665 5.207 1.926 1.116 1.16 1.704 2.766 1.704 4.645v1.966a.67.67 0 01-.672.673H1.672A.674.674 0 011 22.96v-1.966c0-1.879.588-3.486 1.704-4.645 1.214-1.26 3.015-1.926 5.207-1.926h7.842zm0 1.344H7.914c-1.845 0-3.27.511-4.238 1.516-.871.9-1.331 2.185-1.331 3.711v1.294h18.974v-1.294c0-1.526-.46-2.81-1.327-3.711-.968-1.005-2.394-1.516-4.24-1.516zM11.837 0c2.39 0 4.255.629 5.54 1.869 1.334 1.287 2.01 3.2 2.01 5.687v.01l-.01.652c0 .683-.212 1.248-.606 1.637-.393.39-.934.592-1.606.592l-.498.001c-.747 1.784-2.397 2.739-4.827 2.739-3.405 0-5.28-1.876-5.28-5.281s1.879-5.28 5.28-5.28c3.402 0 5.281 1.875 5.281 5.28 0 .423-.029.822-.086 1.196h.13c.306 0 .527-.067.662-.201.171-.168.205-.467.205-.686v-.01l.01-.652c0-2.108-.538-3.694-1.597-4.716-1.028-.992-2.578-1.492-4.608-1.492-1.835 0-3.284.41-4.3 1.22-1.031.82-1.65 2.09-1.841 3.774a.675.675 0 01-.746.592.675.675 0 01-.592-.746c.235-2.05 1.022-3.62 2.34-4.672C7.957.508 9.688 0 11.836 0zm2.192 10.595c-.195.198-.491.306-.834.306-.343 0-.632-.104-.827-.306-.195-.202-.296-.47-.296-.813 0-.69.43-1.12 1.126-1.12.424 0 .75.16.939.44l1.535.001c.07-.362.104-.76.104-1.194 0-1.351-.336-2.36-1.005-3.001-.642-.626-1.626-.938-2.93-.938-1.302 0-2.286.316-2.932.938-.665.642-1.005 1.65-1.005 3.001 0 1.352.336 2.36 1.005 3.002.646.622 1.63.938 2.931.938 1.301 0 2.286-.316 2.931-.938.143-.137.27-.292.383-.462h-1.007a.948.948 0 01-.118.146z" fill="#5CB615" fill-rule="nonzero"/></svg>
